dist/img/blog/6.svg

<svg width="25" height="25" viewBox="0 0 25 25" fill="none" xmlns="http://www.w3.org/2000/svg">
<path d="M21.9164 8.79157C21.917 8.18371 21.6756 7.60057 21.2458 7.17061C20.8159 6.74079 20.2327 6.49943 19.6249 6.5H17.7499V5.45829C17.7494 5.07171 17.5956 4.70104 17.3221 4.42761C17.0488 4.15417 16.6781 4.00043 16.2914 4H9.625C9.23829 4.00042 8.86761 4.15416 8.59432 4.42761C8.32089 4.70104 8.167 5.07171 8.16657 5.45829V6.5H6.29157C5.68372 6.49944 5.10057 6.74079 4.67061 7.17061C4.24079 7.60057 3.99943 8.18371 4 8.79157V12.125C3.99944 12.7329 4.24079 13.316 4.67061 13.746C5.10057 14.1758 5.68372 14.4171 6.29157 14.4166H9V13.375C9 13.1516 9.11914 12.9453 9.3125 12.8337C9.50586 12.7221 9.74414 12.7221 9.9375 12.8337C10.1309 12.9453 10.25 13.1517 10.25 13.375V14.4167H15.6668L15.6666 13.375C15.6666 13.1516 15.7858 12.9453 15.9791 12.8337C16.1725 12.7221 16.4108 12.7221 16.6041 12.8337C16.7975 12.9453 16.9166 13.1517 16.9166 13.375V14.4167L19.6251 14.4166C20.2329 14.4171 20.8161 14.1758 21.246 13.746C21.6759 13.316 21.9172 12.7329 21.9166 12.125L21.9164 8.79157ZM9.41643 5.45829C9.41643 5.34319 9.50976 5.25 9.62485 5.25H16.2916H16.2915C16.3467 5.25 16.3998 5.2719 16.4388 5.31096C16.4779 5.35003 16.4999 5.40304 16.4999 5.45829V6.5H9.41635L9.41643 5.45829Z" fill="#202125"/>
<path d="M6.29142 15.2501C5.78374 15.2492 5.28359 15.1263 4.83313 14.8918V19.6253C4.83271 20.2332 5.07392 20.8163 5.50388 21.2463C5.9337 21.6761 6.51684 21.9175 7.12484 21.9169H18.7913C19.3992 21.9175 19.9824 21.6761 20.4122 21.2463C20.8422 20.8163 21.0834 20.2332 21.083 19.6253V14.8918C20.6325 15.1263 20.1324 15.2492 19.6247 15.2501H16.9163V15.8751C16.9163 16.0984 16.7971 16.3047 16.6038 16.4163C16.4104 16.528 16.1721 16.528 15.9788 16.4163C15.7854 16.3047 15.6663 16.0984 15.6663 15.8751V15.2501H10.2498V15.8751C10.2498 16.0984 10.1307 16.3047 9.93734 16.4163C9.74398 16.528 9.5057 16.528 9.31235 16.4163C9.11898 16.3047 8.99985 16.0984 8.99985 15.8751V15.2501H6.29142Z" fill="#202125"/>
</svg>

<svg width="25" height="25" viewBox="0 0 25 25" fill="none" xmlns="http://www.w3.org/2000/svg"><path d="M21.916 8.792A2.29 2.29 0 0019.625 6.5H17.75V5.458A1.46 1.46 0 0016.29 4H9.625a1.46 1.46 0 00-1.458 1.458V6.5H6.292A2.29 2.29 0 004 8.792v3.333a2.29 2.29 0 002.292 2.292H9v-1.042a.625.625 0 111.25 0v1.042h5.417v-1.042a.625.625 0 111.25 0v1.042h2.708a2.29 2.29 0 002.292-2.292V8.792zm-12.5-3.334c0-.115.094-.208.209-.208h6.667a.208.208 0 01.208.208V6.5H9.416V5.458zM6.291 15.25a3.17 3.17 0 01-1.458-.358v4.733a2.29 2.29 0 002.292 2.292H18.79a2.29 2.29 0 002.292-2.292v-4.733a3.17 3.17 0 01-1.458.358h-2.709v.625a.625.625 0 01-1.25 0v-.625H10.25v.625a.625.625 0 11-1.25 0v-.625H6.29z" fill="#202125"/></svg>
